docs/images/icons/mail.svg

<svg width="35" height="35" fill="none" xmlns="http://www.w3.org/2000/svg"><path d="M31.61 34.99H3.38C1.52 34.99 0 33.35 0 31.34V3.65C0 1.64 1.52 0 3.38 0h28.23C33.47 0 35 1.64 35 3.65v27.69c0 2.01-1.53 3.65-3.39 3.65Z" fill="#1A1A1A"/><path d="M9.2 10c-.94 0-1.7.75-1.7 1.68v10.63c0 .93.76 1.69 1.7 1.69h16.59c.94 0 1.71-.76 1.71-1.69V11.68c0-.93-.77-1.68-1.71-1.68H9.2Zm0 .48h16.59c.25 0 .48.07.67.19l-8.12 8.13c-.47.47-1.23.47-1.71 0l-8.1-8.13c.19-.12.42-.19.67-.19Zm-1.02.53 6.24 6.26-6.24 5.71a1.2 1.2 0 0 1-.2-.67V11.68c0-.24.07-.48.2-.67Zm18.63 0c.13.19.2.43.2.67v10.63c0 .24-.07.48-.2.67l-6.24-5.72 6.24-6.25Zm-6.59 6.6 6.24 5.71c-.19.12-.42.19-.67.19H9.2c-.25 0-.48-.07-.67-.19l6.23-5.71 1.52 1.53c.66.66 1.75.66 2.41 0l1.53-1.53Z" fill="#FFF"/><path d="M6.95 11.21q-.05.23-.05.47v10.63q0 .24.05.47.04.22.13.42.08.19.19.35.13.2.3.38.17.16.35.28.18.12.39.21.19.08.4.12.24.06.49.06h16.59q.25 0 .49-.06.21-.04.4-.12.21-.09.39-.21.18-.12.35-.28.17-.18.3-.38.11-.16.19-.35.09-.2.13-.42.05-.23.05-.47V11.68q0-.24-.05-.47-.04-.22-.13-.42-.08-.19-.19-.35-.13-.2-.3-.38-.17-.16-.35-.28-.18-.12-.39-.21-.19-.08-.4-.12-.24-.06-.49-.06H9.2q-.25 0-.49.06-.21.04-.4.12-.21.09-.39.21-.18.12-.35.28-.17.18-.3.38-.11.16-.19.35-.09.2-.13.42Zm19.76-.95c-.27-.17-.58-.26-.92-.26H9.2c-.34 0-.65.09-.92.26-.2.13-.38.3-.51.5-.17.27-.27.58-.27.92v10.63c0 .33.09.64.26.9.13.2.3.37.5.51.27.17.6.28.94.28h16.59c.34 0 .67-.11.94-.28.2-.14.37-.31.5-.51.17-.26.27-.57.27-.9V11.68c0-.34-.11-.65-.28-.92-.13-.2-.31-.37-.51-.5Zm-.9.22H9.18c-.2 0-.38.05-.55.14-.03.01-.07.03-.1.05l.09.09.35.36 5.73 5.74.5.5 1.43 1.44c.48.47 1.24.47 1.71 0l1.44-1.45.51-.5 5.72-5.73.36-.36.09-.09a.467.467 0 0 0-.1-.05c-.17-.09-.35-.14-.55-.14Zm-16.03.6h15.43l-7.29 7.29q-.1.1-.23.15-.09.04-.2.04-.11 0-.21-.04-.12-.05-.22-.15l-7.28-7.29Zm10.53 6.6-.09-.07-.08.08-1.45 1.45c-.66.66-1.75.66-2.41 0l-1.44-1.45-.08-.08-.08.08L9 22.88l-.38.35-.09.09c.03.02.07.04.1.06.17.08.37.13.57.13h16.59c.2 0 .4-.05.57-.13.03-.02.07-.04.1-.06l-.09-.09-.38-.35-5.68-5.2Zm-5.57.76 1.12 1.12q.16.17.35.29.19.13.41.22.19.07.39.11.23.05.48.05.24 0 .47-.05.2-.04.39-.11.22-.09.41-.21.19-.13.36-.3l1.12-1.12 4.89 4.47H9.86l4.88-4.47Zm12.27 3.9V11.66c-.01-.2-.05-.38-.14-.55-.02-.03-.04-.06-.06-.1l-.09.09-.35.36-5.38 5.37-.34.35-.08.08.08.08.36.32 5.35 4.9.36.33.09.09c.02-.04.04-.07.06-.1.08-.16.13-.34.14-.54Zm-.6-10.08v9.53l-4.98-4.55 4.98-4.98ZM8.63 22.56l5.34-4.89.36-.33.09-.07-.08-.08-.35-.35-5.81-5.83a.88.88 0 0 1-.06.1c-.08.17-.13.36-.14.55v10.68c.01.2.06.38.14.54.02.03.04.06.06.1l.09-.09.36-.33Zm4.92-5.31L8.58 21.8v-9.53l4.97 4.98Z" fill="#FFF" fill-rule="evenodd"/></svg>

<svg width="35.000000" height="35.000000" viewBox="0 0 35 35" fill="none" xmlns="http://www.w3.org/2000/svg" xmlns:xlink="http://www.w3.org/1999/xlink">
	<desc>
			Created with Pixso.
	</desc>
	<defs/>
	<path id="path112" d="M31.61 34.99L3.38 34.99C1.52 34.99 0 33.35 0 31.34L0 3.65C0 1.64 1.52 0 3.38 0L31.61 0C33.47 0 35 1.64 35 3.65L35 31.34C35 33.35 33.47 34.99 31.61 34.99Z" fill="#1A1A1A" fill-opacity="1.000000" fill-rule="nonzero"/>
	<path id="Vector" d="M9.2 10C8.26 10 7.5 10.75 7.5 11.68L7.5 22.31C7.5 23.24 8.26 24 9.2 24L25.79 24C26.73 24 27.5 23.24 27.5 22.31L27.5 11.68C27.5 10.75 26.73 10 25.79 10L9.2 10ZM9.2 10.48L25.79 10.48C26.04 10.48 26.27 10.55 26.46 10.67L18.34 18.8C17.87 19.27 17.11 19.27 16.63 18.8L8.53 10.67C8.72 10.55 8.95 10.48 9.2 10.48ZM8.18 11.01L14.42 17.27L8.18 22.98C8.05 22.79 7.98 22.55 7.98 22.31L7.98 11.68C7.98 11.44 8.05 11.2 8.18 11.01ZM26.81 11.01C26.94 11.2 27.01 11.44 27.01 11.68L27.01 22.31C27.01 22.55 26.94 22.79 26.81 22.98L20.57 17.26L26.81 11.01ZM20.22 17.61L26.46 23.32C26.27 23.44 26.04 23.51 25.79 23.51L9.2 23.51C8.95 23.51 8.72 23.44 8.53 23.32L14.76 17.61L16.28 19.14C16.94 19.8 18.03 19.8 18.69 19.14L20.22 17.61Z" fill="#FFFFFF" fill-opacity="1.000000" fill-rule="nonzero"/>
	<path id="Vector" d="M6.95 11.21Q6.9 11.44 6.9 11.68L6.9 22.31Q6.9 22.55 6.95 22.78Q6.99 23 7.08 23.2Q7.16 23.39 7.27 23.55Q7.4 23.75 7.57 23.93Q7.74 24.09 7.92 24.21Q8.1 24.33 8.31 24.42Q8.5 24.5 8.71 24.54Q8.95 24.6 9.2 24.6L25.79 24.6Q26.04 24.6 26.28 24.54Q26.49 24.5 26.68 24.42Q26.89 24.33 27.07 24.21Q27.25 24.09 27.42 23.93Q27.59 23.75 27.72 23.55Q27.83 23.39 27.91 23.2Q28 23 28.04 22.78Q28.09 22.55 28.09 22.31L28.09 11.68Q28.09 11.44 28.04 11.21Q28 10.99 27.91 10.79Q27.83 10.6 27.72 10.44Q27.59 10.24 27.42 10.06Q27.25 9.9 27.07 9.78Q26.89 9.66 26.68 9.57Q26.49 9.49 26.28 9.45Q26.04 9.39 25.79 9.39L9.2 9.39Q8.95 9.39 8.71 9.45Q8.5 9.49 8.31 9.57Q8.1 9.66 7.92 9.78Q7.74 9.9 7.57 10.06Q7.4 10.24 7.27 10.44Q7.16 10.6 7.08 10.79Q6.99 10.99 6.95 11.21ZM26.71 10.26C26.44 10.09 26.13 10 25.79 10L9.2 10C8.86 10 8.55 10.09 8.28 10.26C8.08 10.39 7.9 10.56 7.77 10.76C7.6 11.03 7.5 11.34 7.5 11.68L7.5 22.31C7.5 22.64 7.59 22.95 7.76 23.21C7.89 23.41 8.06 23.58 8.26 23.72C8.53 23.89 8.86 24 9.2 24L25.79 24C26.13 24 26.46 23.89 26.73 23.72C26.93 23.58 27.1 23.41 27.23 23.21C27.4 22.95 27.5 22.64 27.5 22.31L27.5 11.68C27.5 11.34 27.39 11.03 27.22 10.76C27.09 10.56 26.91 10.39 26.71 10.26ZM25.81 10.48C25.8 10.48 25.79 10.48 25.79 10.48L9.2 10.48L9.18 10.48C8.98 10.48 8.8 10.53 8.63 10.62C8.6 10.63 8.56 10.65 8.53 10.67L8.62 10.76L8.97 11.12L14.7 16.86L15.2 17.36L16.63 18.8C17.11 19.27 17.87 19.27 18.34 18.8L19.78 17.35L20.29 16.85L26.01 11.12L26.37 10.76L26.46 10.67C26.43 10.65 26.39 10.63 26.36 10.62C26.19 10.53 26.01 10.48 25.81 10.48ZM9.78 11.08L25.21 11.08L17.92 18.37Q17.82 18.47 17.69 18.52Q17.6 18.56 17.49 18.56Q17.38 18.56 17.28 18.52Q17.16 18.47 17.06 18.37L9.78 11.08ZM20.31 17.68L20.22 17.61L20.14 17.69L18.69 19.14C18.03 19.8 16.94 19.8 16.28 19.14L14.84 17.69L14.76 17.61L14.68 17.69L9 22.88L8.62 23.23L8.53 23.32C8.56 23.34 8.6 23.36 8.63 23.38C8.8 23.46 9 23.51 9.2 23.51L25.79 23.51C25.99 23.51 26.19 23.46 26.36 23.38C26.39 23.36 26.43 23.34 26.46 23.32L26.37 23.23L25.99 22.88L20.31 17.68ZM14.74 18.44L15.86 19.56Q16.02 19.73 16.21 19.85Q16.4 19.98 16.62 20.07Q16.81 20.14 17.01 20.18Q17.24 20.23 17.49 20.23Q17.73 20.23 17.96 20.18Q18.16 20.14 18.35 20.07Q18.57 19.98 18.76 19.86Q18.95 19.73 19.12 19.56L20.24 18.44L25.13 22.91L9.86 22.91L14.74 18.44ZM27.01 22.34C27.01 22.33 27.01 22.32 27.01 22.31L27.01 11.68C27.01 11.68 27.01 11.67 27.01 11.66C27 11.46 26.96 11.28 26.87 11.11C26.85 11.08 26.83 11.05 26.81 11.01L26.72 11.1L26.37 11.46L20.99 16.83L20.65 17.18L20.57 17.26L20.65 17.34L21.01 17.66L26.36 22.56L26.72 22.89L26.81 22.98C26.83 22.94 26.85 22.91 26.87 22.88C26.95 22.72 27 22.54 27.01 22.34ZM26.41 12.26L26.41 21.79L21.43 17.24L26.41 12.26ZM8.63 22.56L13.97 17.67L14.33 17.34L14.42 17.27L14.34 17.19L13.99 16.84L8.18 11.01C8.16 11.05 8.14 11.08 8.12 11.11C8.04 11.28 7.99 11.47 7.98 11.66C7.98 11.67 7.98 11.68 7.98 11.68L7.98 22.31C7.98 22.32 7.98 22.33 7.98 22.34C7.99 22.54 8.04 22.72 8.12 22.88C8.14 22.91 8.16 22.94 8.18 22.98L8.27 22.89L8.63 22.56ZM13.55 17.25L8.58 21.8L8.58 12.27L13.55 17.25Z" fill="#FFFFFF" fill-opacity="1.000000" fill-rule="evenodd"/>
</svg>
